src/assets/Training/security.svg

<svg fill="none" height="173" viewBox="0 0 245 173" width="245" xmlns="http://www.w3.org/2000/svg" xmlns:xlink="http://www.w3.org/1999/xlink"><clipPath id="a"><path d="m112.056 146.069h7.66522v8.11646h-7.66522z"/></clipPath><clipPath id="b"><path d="m30.2209 16.5h7.66522v8.11646h-7.66522z"/></clipPath><path d="m15.1105 99.5h174.7145" stroke="#dbe5fa" stroke-dasharray="1.5 1.5"/><ellipse cx="105.626" cy="82.3443" fill="#e3f2fd" fill-opacity=".5" rx="55.5728" ry="58.8443"/><g stroke-width="1.01456"><path d="m46.8313 99.6348h12.0698 7.4089c2.2413 0 4.0582-1.817 4.0582-4.0583v-45.2026c0-2.2413 1.817-4.0583 4.0583-4.0583h7.4729c2.2413 0 4.0582-1.8169 4.0582-4.0582v-24.6545c0-2.2412 1.817-4.0582 4.0583-4.0582h33.7051c2.241 0 4.058 1.8169 4.058 4.0582v41.3057c0 2.2413-1.817 4.0582-4.058 4.0582h-2.077c-2.241 0-4.058-1.8169-4.058-4.0582v-30.4294c0-1.9868-1.611-3.5975-3.597-3.5975-1.987 0-3.598 1.6107-3.598 3.5975v30.4294c0 2.2413-1.817 4.0582-4.058 4.0582h-.878c-2.241 0-4.058-1.8169-4.058-4.0582v-30.2795c0-2.0696-1.6777-3.7474-3.7473-3.7474-2.0697 0-3.7475 1.6778-3.7475 3.7474v77.3989c0 2.241-1.8169 4.058-4.0582 4.058h-41.4998c-2.2413 0-4.0582 1.817-4.0582 4.058v15.798c0 2.241 1.8169 4.058 4.0582 4.058h12.1198c2.2413 0 4.0582-1.817 4.0582-4.058v-35.9917c0-2.2413 1.817-4.0582 4.0583-4.0582h35.8035c2.241 0 4.058 1.8169 4.058 4.0582v5.7005c0 2.2412 1.817 4.0582 4.059 4.0582h20.208c2.241 0 4.058-1.817 4.058-4.0582v-57.4254c0-2.2413-1.817-4.0582-4.058-4.0582h-114.4847c-2.2413 0-4.0582 1.8169-4.0582 4.0582v10.9058c0 2.2413 1.8169 4.0582 4.0582 4.0582h34.5462m57.6205 17.5582v5.4733c0 2.2413 1.803 4.0583 4.045 4.0583h54.327c2.242 0 4.063-1.817 4.063-4.0583v-80.2209" stroke="#7495d8" stroke-opacity=".5"/><path d="m140.48 20.7706c3.045.0001 5.561 2.6227 5.561 5.919 0 3.2961-2.516 5.9179-5.561 5.9179-3.044 0-5.561-2.6218-5.561-5.9179 0-3.2963 2.517-5.919 5.561-5.919z" fill="#dbe5fa" stroke="#728fde"/><path d="m115.728 64.735v99.765" stroke="#7495d8"/><path d="m3.30542 172.5v-48.942c0-2.241 1.81693-4.058 4.05823-4.058h2.27198c2.24127 0 4.05827 1.817 4.05827 4.058v20.884c0 2.241 1.8169 4.058 4.0582 4.058h.6401c2.2413 0 4.0582-1.817 4.0582-4.058v-30.742c0-2.241 1.8169-4.058 4.0582-4.058h45.1606c2.2413 0 4.0582 1.817 4.0582 4.058v19.493c0 2.242 1.817 4.059 4.0583 4.059h77.6493c2.241 0 4.058-1.817 4.058-4.059v-63.6348c0-2.2413-1.817-4.0582-4.058-4.0582h-119.8504c-2.2413 0-4.0582-1.8169-4.0582-4.0582v-33.9418" stroke="#f2fbf9"/></g><path d="m112.657 128.756c-32.0979-14.756-34.1336-62.2178-34.2627-68.1786-.0076-.3511.2663-.6404.6161-.6718 20.6453-1.8531 32.1736-7.1598 33.5706-7.8347.096-.0464.2-.0709.307-.0709h.13c.109 0 .214.0252.311.0734 1.397.6901 12.801 6.0594 33.408 8.0654.354.0344.627.3333.612.6882-.266 6.0974-3.36 54.833-34.751 67.908" fill="#1855d1"/><path d="m113.007 120.977c-.19.098-.42.099-.61.002-24.1027-12.301-26.6463-49.1594-26.8867-54.3611-.0164-.3565.2591-.6371.6146-.6697 17.4331-1.5991 26.7651-6.2969 26.7651-6.2969.015-.0098.032-.0118.048-.0038.526.2639 9.783 4.8078 26.696 6.4875.355.0352.628.3165.609.6723-.266 5.1668-2.99 41.6697-27.236 54.1697z" fill="#aed9f9" stroke="#fff" stroke-width="2.70549"/><path d="m112.721 119.118c-.001.261-.155.278-.39.163-21.5612-10.585-25.0432-46.2497-25.4385-51.4324-.0278-.3641.2522-.6555.6159-.689 17.3846-1.5987 25.3306-6.1975 25.3306-6.1975 0-.0002 0-.0004 0-.0004-.008-.0007-17.8271-1.6748 0 .0004 0 0-.104 52.9449-.118 58.1559z" fill="#90cefb"/><path d="m113.136 70.7687c3.985 0 7.216 3.2308 7.216 7.2159v8.3642h-14.432v-8.3642c0-3.985 3.231-7.2158 7.216-7.2159z" stroke="#fff" stroke-width="5.07279"/><rect fill="#ff8c5f" height="19.8719" rx="4.39642" width="25.2313" x="100.424" y="82.364"/><path d="m111.116 97.6449 1.341-7.1033h1.49l1.489 7.1033z" fill="#e1612f"/><ellipse cx="113.162" cy="89.519" fill="#e1612f" rx="2.50143" ry="2.58849"/><path d="m115.888 144.208c3.044 0 5.56 2.623 5.56 5.919 0 3.297-2.516 5.918-5.56 5.918s-5.561-2.621-5.562-5.918c0-3.296 2.518-5.919 5.562-5.919z" fill="#d4d9f7" stroke="#f2fbf9" stroke-width="1.01456"/><path d="m69.7372 107.515c1.118 0 2.0565.966 2.0566 2.199 0 1.232-.9385 2.198-2.0566 2.198-1.1182 0-2.0576-.966-2.0576-2.198.0001-1.233.9395-2.199 2.0576-2.199z" fill="#728fde" stroke="#a9bae8" stroke-width=".676372"/><path d="m110.618 35.8201c1.294 0 2.377 1.1178 2.377 2.5371 0 1.419-1.083 2.5361-2.377 2.5361-1.295 0-2.377-1.117-2.377-2.5361 0-1.4193 1.082-2.5371 2.377-2.5371z" fill="#728fde" stroke="#a9bae8" stroke-width=".676372"/><g clip-path="url(#a)"><path clip-rule="evenodd" d="m115.352 152.152-.203-.216-.203.216c.112.118.294.118.406 0zm-.203-.646-1.33-1.408c-.112-.119-.294-.119-.406 0-.113.119-.113.311 0 .43l1.533 1.624.203-.216c.203.216.203.216.203.216l2.958-3.132c.112-.119.112-.312 0-.431s-.294-.119-.406 0z" fill="#e3f2fd" fill-rule="evenodd"/><path d="m115.149 151.936.203.216m-.203-.216-.203.216m.203-.216c.203.216.203.216.203.216m0 0c-.112.118-.294.118-.406 0m.406 0 2.958-3.132c.112-.119.112-.312 0-.431s-.294-.119-.406 0l-2.755 2.917-1.33-1.408c-.112-.119-.294-.119-.406 0-.113.119-.113.311 0 .43l1.533 1.624" stroke="#8f74b4" stroke-linecap="round" stroke-linejoin="round" stroke-width=".676372"/></g><path clip-rule="evenodd" d="m139.907 28.4324-.204-.2152-.203.2152c.112.1189.294.1189.407 0zm-.204-.6457-1.329-1.408c-.113-.1189-.295-.1189-.407 0-.112.1188-.112.3115 0 .4304l1.533 1.6233.203-.2152c.204.2152.204.2152.204.2152l2.958-3.1319c.112-.1189.112-.3116 0-.4305-.113-.1189-.295-.1189-.407 0z" fill="#e3f2fd" fill-rule="evenodd"/><path d="m139.703 28.2172.204.2152m-.204-.2152-.203.2152m.203-.2152c.204.2152.204.2152.204.2152m0 0c-.113.1189-.295.1189-.407 0m.407 0 2.958-3.1319c.112-.1189.112-.3116 0-.4305-.113-.1189-.295-.1189-.407 0l-2.755 2.9167-1.329-1.408c-.113-.1189-.295-.1189-.407 0-.112.1188-.112.3115 0 .4304l1.533 1.6233" stroke="#8f74b4" stroke-linecap="round" stroke-linejoin="round" stroke-width=".676372"/><rect fill="#728fde" height="6" rx="2.80541" width="5.61083" x=".5" y="144"/><rect height="6" rx="2.80541" stroke="#a7bde9" width="5.61083" x=".5" y="144"/><g clip-path="url(#b)"><path clip-rule="evenodd" d="m33.1891 23.1516-.2033-.2152-.2032.2152c.1122.1188.2942.1188.4065 0zm-.2033-.6457-1.3298-1.4081c-.1122-.1188-.2942-.1188-.4065 0-.1122.1189-.1122.3116 0 .4305l1.5331 1.6233.2032-.2152c.2033.2152.2033.2152.2033.2152l2.9578-3.132c.1123-.1188.1123-.3115 0-.4304-.1122-.1189-.2942-.1189-.4065 0z" fill="#e3f2fd" fill-rule="evenodd"/><path d="m32.9858 22.9364.2033.2152m-.2033-.2152-.2032.2152m.2032-.2152c.2033.2152.2033.2152.2033.2152m0 0c-.1123.1188-.2943.1188-.4065 0m.4065 0 2.9578-3.132c.1123-.1188.1123-.3115 0-.4304-.1122-.1189-.2942-.1189-.4065 0l-2.7546 2.9167-1.3298-1.4081c-.1122-.1188-.2942-.1188-.4065 0-.1122.1189-.1122.3116 0 .4305l1.5331 1.6233" stroke="#8f74b4" stroke-linecap="round" stroke-linejoin="round" stroke-width=".676372"/></g><path clip-rule="evenodd" d="m240.958 122.152-.203-.216-.204.216c.113.118.295.118.407 0zm-.203-.646-1.33-1.408c-.112-.119-.294-.119-.407 0-.112.119-.112.311 0 .43l1.533 1.624.204-.216c.203.216.203.216.203.216l2.958-3.132c.112-.119.112-.312 0-.431s-.294-.119-.407 0z" fill="#e3f2fd" fill-rule="evenodd"/><path d="m240.755 121.936.203.216m-.203-.216-.204.216m.204-.216c.203.216.203.216.203.216m0 0c-.112.118-.294.118-.407 0m.407 0 2.958-3.132c.112-.119.112-.312 0-.431s-.294-.119-.407 0l-2.754 2.917-1.33-1.408c-.112-.119-.294-.119-.407 0-.112.119-.112.311 0 .43l1.533 1.624" stroke="#8f74b4" stroke-linecap="round" stroke-linejoin="round" stroke-width=".676372"/><path d="m147.327 27h35.712c2.209 0 4 1.7909 4 4v10.1064c0 2.2091-1.791 4-4 4h-14.062c-2.21 0-4 1.7908-4 4v65.8936c0 2.209 1.79 4 4 4h32.181" stroke="#f2fbf9"/><path d="m175.221 81.8379c1.118.0001 2.057.9659 2.057 2.1982 0 1.2325-.938 2.1982-2.057 2.1983-1.118 0-2.057-.9657-2.057-2.1983 0-1.2324.939-2.1982 2.057-2.1982z" fill="#728fde" stroke="#a9bae8" stroke-width=".676372"/></svg>

<svg width="245" height="173" viewBox="0 0 245 173" fill="none" xmlns="http://www.w3.org/2000/svg">
  <line x1="15.1105" y1="99.5" x2="189.825" y2="99.5" stroke="#DBE5FA" stroke-dasharray="1.5 1.5"/>
  <ellipse cx="105.626" cy="82.3443" rx="55.5728" ry="58.8443" fill="#E3F2FD" fill-opacity="0.5"/>
  <path d="M46.8313 99.6348H58.9011H66.31C68.5513 99.6348 70.3682 97.8178 70.3682 95.5765V50.3739C70.3682 48.1326 72.1852 46.3156 74.4265 46.3156H81.8994C84.1407 46.3156 85.9576 44.4987 85.9576 42.2574V17.6029C85.9576 15.3617 87.7746 13.5447 90.0159 13.5447H123.721C125.962 13.5447 127.779 15.3616 127.779 17.6029V58.9086C127.779 61.1499 125.962 62.9668 123.721 62.9668H121.644C119.403 62.9668 117.586 61.1499 117.586 58.9086V28.4792C117.586 26.4924 115.975 24.8817 113.989 24.8817V24.8817C112.002 24.8817 110.391 26.4924 110.391 28.4792V58.9086C110.391 61.1499 108.574 62.9668 106.333 62.9668H105.455C103.214 62.9668 101.397 61.1499 101.397 58.9086V28.6291C101.397 26.5595 99.7193 24.8817 97.6497 24.8817V24.8817C95.58 24.8817 93.9022 26.5595 93.9022 28.6291V106.028C93.9022 108.269 92.0853 110.086 89.844 110.086H48.3442C46.1029 110.086 44.286 111.903 44.286 114.144V129.942C44.286 132.183 46.1029 134 48.3442 134H60.464C62.7053 134 64.5222 132.183 64.5222 129.942V93.9503C64.5222 91.709 66.3392 89.8921 68.5805 89.8921H104.384C106.625 89.8921 108.442 91.709 108.442 93.9503V99.6508C108.442 101.892 110.259 103.709 112.501 103.709H132.709C134.95 103.709 136.767 101.892 136.767 99.6508V42.2254C136.767 39.9841 134.95 38.1672 132.709 38.1672H18.2243C15.983 38.1672 14.1661 39.9841 14.1661 42.2254V53.1312C14.1661 55.3725 15.983 57.1894 18.2243 57.1894H52.7705M110.391 74.7476V80.2209C110.391 82.4622 112.194 84.2792 114.436 84.2792C122.873 84.2792 143.666 84.2792 168.763 84.2792C171.005 84.2792 172.826 82.4622 172.826 80.2209V0" stroke="#7495D8" stroke-opacity="0.5" stroke-width="1.01456"/>
  <path d="M140.48 20.7706C143.525 20.7707 146.041 23.3933 146.041 26.6896C146.041 29.9857 143.525 32.6075 140.48 32.6075C137.436 32.6075 134.919 29.9857 134.919 26.6896C134.919 23.3933 137.436 20.7706 140.48 20.7706Z" fill="#DBE5FA" stroke="#728FDE" stroke-width="1.01456"/>
  <path d="M115.728 64.735V164.5" stroke="#7495D8" stroke-width="1.01456"/>
  <path d="M3.30542 172.5V123.558C3.30542 121.317 5.12235 119.5 7.36365 119.5H9.63563C11.8769 119.5 13.6939 121.317 13.6939 123.558V144.442C13.6939 146.683 15.5108 148.5 17.7521 148.5H18.3922C20.6335 148.5 22.4504 146.683 22.4504 144.442V113.7C22.4504 111.459 24.2673 109.642 26.5086 109.642H71.6692C73.9105 109.642 75.7274 111.459 75.7274 113.7V133.193C75.7274 135.435 77.5444 137.252 79.7857 137.252H157.435C159.676 137.252 161.493 135.435 161.493 133.193V69.5582C161.493 67.3169 159.676 65.5 157.435 65.5H37.5846C35.3433 65.5 33.5264 63.6831 33.5264 61.4418V27.5" stroke="#F2FBF9" stroke-width="1.01456"/>
  <path d="M112.657 128.756C80.5591 114 78.5234 66.5382 78.3943 60.5774C78.3867 60.2263 78.6606 59.937 79.0104 59.9056C99.6557 58.0525 111.184 52.7458 112.581 52.0709C112.677 52.0245 112.781 52 112.888 52H113.018C113.127 52 113.232 52.0252 113.329 52.0734C114.726 52.7635 126.13 58.1328 146.737 60.1388C147.091 60.1732 147.364 60.4721 147.349 60.827C147.083 66.9244 143.989 115.66 112.598 128.735" fill="#1855D1"/>
  <path d="M113.007 120.977C112.817 121.075 112.587 121.076 112.397 120.979C88.2943 108.678 85.7507 71.8196 85.5103 66.6179C85.4939 66.2614 85.7694 65.9808 86.1249 65.9482C103.558 64.3491 112.89 59.6513 112.89 59.6513V59.6513C112.905 59.6415 112.922 59.6395 112.938 59.6475C113.464 59.9114 122.721 64.4553 139.634 66.135C139.989 66.1702 140.262 66.4515 140.243 66.8073C139.977 71.9741 137.253 108.477 113.007 120.977Z" fill="#AED9F9" stroke="white" stroke-width="2.70549"/>
  <path d="M112.721 119.118C112.72 119.379 112.566 119.396 112.331 119.281C90.7698 108.696 87.2878 73.0313 86.8925 67.8486C86.8647 67.4845 87.1447 67.1931 87.5084 67.1596C104.893 65.5609 112.839 60.9621 112.839 60.9621V60.9621C112.839 60.9619 112.839 60.9617 112.839 60.9617C112.831 60.961 95.0119 59.2869 112.839 60.9621C112.839 60.9621 112.735 113.907 112.721 119.118Z" fill="#90CEFB"/>
  <path d="M113.136 70.7687C117.121 70.7687 120.352 73.9995 120.352 77.9846V86.3488H105.92V77.9846C105.92 73.9996 109.151 70.7688 113.136 70.7687Z" stroke="white" stroke-width="5.07279"/>
  <rect x="100.424" y="82.364" width="25.2313" height="19.8719" rx="4.39642" fill="#FF8C5F"/>
  <path d="M111.116 97.6449L112.457 90.5416H113.947L115.436 97.6449H111.116Z" fill="#E1612F"/>
  <ellipse cx="113.162" cy="89.519" rx="2.50143" ry="2.58849" fill="#E1612F"/>
  <path d="M115.888 144.208C118.932 144.208 121.448 146.831 121.448 150.127C121.448 153.424 118.932 156.045 115.888 156.045C112.844 156.045 110.327 153.424 110.326 150.127C110.326 146.831 112.844 144.208 115.888 144.208Z" fill="#D4D9F7" stroke="#F2FBF9" stroke-width="1.01456"/>
  <path d="M69.7372 107.515C70.8552 107.515 71.7937 108.481 71.7938 109.714C71.7938 110.946 70.8553 111.912 69.7372 111.912C68.619 111.912 67.6796 110.946 67.6796 109.714C67.6797 108.481 68.6191 107.515 69.7372 107.515Z" fill="#728FDE" stroke="#A9BAE8" stroke-width="0.676372"/>
  <path d="M110.618 35.8201C111.912 35.8201 112.995 36.9379 112.995 38.3572C112.995 39.7762 111.912 40.8933 110.618 40.8933C109.323 40.8933 108.241 39.7763 108.241 38.3572C108.241 36.9379 109.323 35.8201 110.618 35.8201Z" fill="#728FDE" stroke="#A9BAE8" stroke-width="0.676372"/>
  <g clip-path="url(#clip0_1_710)">
    <path fill-rule="evenodd" clip-rule="evenodd" d="M115.352 152.152L115.149 151.936L114.946 152.152C115.058 152.27 115.24 152.27 115.352 152.152ZM115.149 151.506L113.819 150.098C113.707 149.979 113.525 149.979 113.413 150.098C113.3 150.217 113.3 150.409 113.413 150.528L114.946 152.152L115.149 151.936C115.352 152.152 115.352 152.152 115.352 152.152L118.31 149.02C118.422 148.901 118.422 148.708 118.31 148.589C118.198 148.47 118.016 148.47 117.904 148.589L115.149 151.506Z" fill="#E3F2FD"/>
    <path d="M115.149 151.936L115.352 152.152M115.149 151.936L114.946 152.152M115.149 151.936C115.352 152.152 115.352 152.152 115.352 152.152M115.352 152.152C115.24 152.27 115.058 152.27 114.946 152.152M115.352 152.152L118.31 149.02C118.422 148.901 118.422 148.708 118.31 148.589C118.198 148.47 118.016 148.47 117.904 148.589L115.149 151.506L113.819 150.098C113.707 149.979 113.525 149.979 113.413 150.098C113.3 150.217 113.3 150.409 113.413 150.528L114.946 152.152" stroke="#8F74B4" stroke-width="0.676372" stroke-linecap="round" stroke-linejoin="round"/>
  </g>
  <path fill-rule="evenodd" clip-rule="evenodd" d="M139.907 28.4324L139.703 28.2172L139.5 28.4324C139.612 28.5513 139.794 28.5513 139.907 28.4324ZM139.703 27.7867L138.374 26.3787C138.261 26.2598 138.079 26.2598 137.967 26.3787C137.855 26.4975 137.855 26.6902 137.967 26.8091L139.5 28.4324L139.703 28.2172C139.907 28.4324 139.907 28.4324 139.907 28.4324L142.865 25.3005C142.977 25.1816 142.977 24.9889 142.865 24.87C142.752 24.7511 142.57 24.7511 142.458 24.87L139.703 27.7867Z" fill="#E3F2FD"/>
  <path d="M139.703 28.2172L139.907 28.4324M139.703 28.2172L139.5 28.4324M139.703 28.2172C139.907 28.4324 139.907 28.4324 139.907 28.4324M139.907 28.4324C139.794 28.5513 139.612 28.5513 139.5 28.4324M139.907 28.4324L142.865 25.3005C142.977 25.1816 142.977 24.9889 142.865 24.87C142.752 24.7511 142.57 24.7511 142.458 24.87L139.703 27.7867L138.374 26.3787C138.261 26.2598 138.079 26.2598 137.967 26.3787C137.855 26.4975 137.855 26.6902 137.967 26.8091L139.5 28.4324" stroke="#8F74B4" stroke-width="0.676372" stroke-linecap="round" stroke-linejoin="round"/>
  <rect x="0.5" y="144" width="5.61083" height="6" rx="2.80541" fill="#728FDE"/>
  <rect x="0.5" y="144" width="5.61083" height="6" rx="2.80541" stroke="#A7BDE9"/>
  <g clip-path="url(#clip1_1_710)">
    <path fill-rule="evenodd" clip-rule="evenodd" d="M33.1891 23.1516L32.9858 22.9364L32.7826 23.1516C32.8948 23.2704 33.0768 23.2704 33.1891 23.1516ZM32.9858 22.5059L31.656 21.0978C31.5438 20.979 31.3618 20.979 31.2495 21.0978C31.1373 21.2167 31.1373 21.4094 31.2495 21.5283L32.7826 23.1516L32.9858 22.9364C33.1891 23.1516 33.1891 23.1516 33.1891 23.1516L36.1469 20.0196C36.2592 19.9008 36.2592 19.7081 36.1469 19.5892C36.0347 19.4703 35.8527 19.4703 35.7404 19.5892L32.9858 22.5059Z" fill="#E3F2FD"/>
    <path d="M32.9858 22.9364L33.1891 23.1516M32.9858 22.9364L32.7826 23.1516M32.9858 22.9364C33.1891 23.1516 33.1891 23.1516 33.1891 23.1516M33.1891 23.1516C33.0768 23.2704 32.8948 23.2704 32.7826 23.1516M33.1891 23.1516L36.1469 20.0196C36.2592 19.9008 36.2592 19.7081 36.1469 19.5892C36.0347 19.4703 35.8527 19.4703 35.7404 19.5892L32.9858 22.5059L31.656 21.0978C31.5438 20.979 31.3618 20.979 31.2495 21.0978C31.1373 21.2167 31.1373 21.4094 31.2495 21.5283L32.7826 23.1516" stroke="#8F74B4" stroke-width="0.676372" stroke-linecap="round" stroke-linejoin="round"/>
  </g>
  <path fill-rule="evenodd" clip-rule="evenodd" d="M240.958 122.152L240.755 121.936L240.551 122.152C240.664 122.27 240.846 122.27 240.958 122.152ZM240.755 121.506L239.425 120.098C239.313 119.979 239.131 119.979 239.018 120.098C238.906 120.217 238.906 120.409 239.018 120.528L240.551 122.152L240.755 121.936C240.958 122.152 240.958 122.152 240.958 122.152L243.916 119.02C244.028 118.901 244.028 118.708 243.916 118.589C243.804 118.47 243.622 118.47 243.509 118.589L240.755 121.506Z" fill="#E3F2FD"/>
  <path d="M240.755 121.936L240.958 122.152M240.755 121.936L240.551 122.152M240.755 121.936C240.958 122.152 240.958 122.152 240.958 122.152M240.958 122.152C240.846 122.27 240.664 122.27 240.551 122.152M240.958 122.152L243.916 119.02C244.028 118.901 244.028 118.708 243.916 118.589C243.804 118.47 243.622 118.47 243.509 118.589L240.755 121.506L239.425 120.098C239.313 119.979 239.131 119.979 239.018 120.098C238.906 120.217 238.906 120.409 239.018 120.528L240.551 122.152" stroke="#8F74B4" stroke-width="0.676372" stroke-linecap="round" stroke-linejoin="round"/>
  <path d="M147.327 27H183.039C185.248 27 187.039 28.7909 187.039 31V41.1064C187.039 43.3155 185.248 45.1064 183.039 45.1064H168.977C166.767 45.1064 164.977 46.8972 164.977 49.1064V115C164.977 117.209 166.767 119 168.977 119H201.158" stroke="#F2FBF9"/>
  <path d="M175.221 81.8379C176.339 81.838 177.278 82.8038 177.278 84.0361C177.278 85.2686 176.34 86.2343 175.221 86.2344C174.103 86.2344 173.164 85.2687 173.164 84.0361C173.164 82.8037 174.103 81.8379 175.221 81.8379Z" fill="#728FDE" stroke="#A9BAE8" stroke-width="0.676372"/>
  <defs>
    <clipPath id="clip0_1_710">
      <rect width="7.66522" height="8.11646" fill="white" transform="translate(112.056 146.069)"/>
    </clipPath>
    <clipPath id="clip1_1_710">
      <rect width="7.66522" height="8.11646" fill="white" transform="translate(30.2209 16.5)"/>
    </clipPath>
  </defs>
</svg>
